X:1
T:Rimini, 11.11.11.11.11
T:Rimini, 11.11.11.11.11
T:WIlliam Howard Doane, 1877
T:Public Domain Courtesy of the Cyber Hymnal™
C:WIlliam Howard Doane, 1877
Z:Public Domain
Z:Courtesy of the Cyber Hymnal™
%%score ( 1 2 ) ( 3 4 )
L:1/8
Q:1/4=103
M:6/8
K:C
V:1 treble 
V:2 treble 
V:3 bass 
V:4 bass 
V:1
 [EG]2 [Ec] [GB]2 [FA] | [FA]3 [EG]3 | [DF]2 [C^F] [B,G]2 [D=F] | [CE]6 | [EG]2 [Ec] [GB]2 [FA] | %5
 [FA]3 [EG]3 | [D^F]2 [Dc] [DB]2 [CA] | [B,G]6 | [FB]2 [FB] [Ec]2 [Fd] | [Ec]3 [EG]3 | %10
 [DF]2 [DF] [EG]2 [DF] | [CE]6 | [CE]2 [EG] [Ec]2 [GB] | [Fd]2 [Fc] !fermata![FA]3 | %14
 [EG]3 [Gc]2 [Fd] | [Ec]6 | [Fd]2 [E^c] [Fd]2 [Ge] | [Ec]3 [EG]3 | [Ac]2 [G^B] [Ac]2 [FA] | [EG]6 | %20
 [CE]2 [EG] [Ec]2 [GB] | [Fd]2 [Fc] !fermata![FA]3 | [EG]3 [Gc]2 [Fd] | [Ec]6 |] %24
V:2
 x6 | x6 | x6 | x6 | x6 | x6 | x6 | x6 | x6 | x6 | x6 | x6 | x6 | x6 | x6 | x6 | x6 | x6 | x4 F x | %19
 x6 | x6 | x6 | x6 | x6 |] %24
V:3
 [C,C]2 [C,G,] [C,G,]2 [C,C] | [C,C]3 (C2 G,) | [G,,G,]2 [G,,G,] [G,,G,]2 [G,,G,] | [C,G,]6 | %4
 [C,C]2 [C,G,] [C,G,]2 [C,C] | [C,C]3 [C,C]3 | [D,C]2 [D,A,] [D,G,]2 [D,^F,] | [G,,G,]6 | %8
 [G,D]2 [G,D] [G,C]2 [G,B,] | [C,C]3 [C,C]3 | G,2 G, [G,,G,]2 [G,,G,] | [C,G,]6 | %12
 [C,G,]2 [C,G,] [C,G,]2 [E,C] | [F,A,]2 [F,A,] !fermata![F,C]3 | [G,C]3 [G,E]2 [G,B,] | [C,C]6 | %16
 [G,B,]2 [G,B,] [G,B,]2 [G,B,] | [C,C]3 [C,C]3 | [F,C]2 [F,C] [F,C]2 [F,C] | [C,C]6 | %20
 [C,G,]2 [C,G,] [C,G,]2 [E,C] | [F,A,]2 [F,A,] !fermata![F,C]3 | [G,C]3 [G,E]2 [G,B,] | [C,C]6 |] %24
V:4
 x6 | x3 C,3 | x6 | x6 | x6 | x6 | x6 | x6 | x6 | x6 | G,2 G, x3 | x6 | x6 | x6 | x6 | x6 | x6 | %17
 x6 | x6 | x6 | x6 | x6 | x6 | x6 |] %24

